packages/base/core/src/svg/system/error_circle.svg

<?xml version="1.0" encoding="UTF-8"?>
<svg width="24px" height="24px" viewBox="0 0 24 24" version="1.1" xmlns="http://www.w3.org/2000/svg" xmlns:xlink="http://www.w3.org/1999/xlink">
    <!-- Generator: Sketch 57.1 (83088) - https://sketch.com -->
    <title>Icons/System/error-circle</title>
    <desc>Created with Sketch.</desc>
    <g id="Icons/System/error-circle" stroke="none" stroke-width="1" fill="none" fill-rule="evenodd">
        <g id="Modèle" transform="translate(7.750000, 7.750000)" stroke="#979797" stroke-linecap="round" stroke-width="2">
            <path d="M0,0 L8.51179788,8.51179788" id="Line" transform="translate(4.255899, 4.255899) scale(1, -1) translate(-4.255899, -4.255899) "></path>
            <path d="M0,0 L8.5125,8.5125" id="Line"></path>
        </g>
        <path d="M12,1 C18.0751322,1 23,5.92486775 23,12 C23,18.0751322 18.0751322,23 12,23 C5.92486775,23 1,18.0751322 1,12 C1,5.92486775 5.92486775,1 12,1 Z M12,3 C7.02943725,3 3,7.02943725 3,12 C3,16.9705627 7.02943725,21 12,21 C16.9705627,21 21,16.9705627 21,12 C21,7.02943725 16.9705627,3 12,3 Z M8.36289944,6.95970461 L8.45710678,7.04289322 L12.005,10.591 L15.5546911,7.04289322 C15.9452154,6.65236893 16.5783804,6.65236893 16.9689047,7.04289322 C17.359429,7.43341751 17.359429,8.06658249 16.9689047,8.45710678 L13.42,12.005 L16.9696068,15.5553932 C17.3300907,15.9158772 17.3578203,16.4831082 17.0527954,16.8753994 L16.9696068,16.9696068 C16.6091228,17.3300907 16.0418918,17.3578203 15.6496006,17.0527954 L15.5553932,16.9696068 L12.005,13.42 L8.45710678,16.9689047 C8.06658249,17.359429 7.43341751,17.359429 7.04289322,16.9689047 C6.65236893,16.5783804 6.65236893,15.9452154 7.04289322,15.5546911 L10.591,12.005 L7.04289322,8.45710678 C6.68240926,8.09662282 6.65467972,7.52939176 6.95970461,7.13710056 L7.04289322,7.04289322 C7.40337718,6.68240926 7.97060824,6.65467972 8.36289944,6.95970461 Z" id="Color" fill="#0050D7"></path>
    </g>
</svg>

<svg xmlns="http://www.w3.org/2000/svg" width="24" height="24" viewBox="0 0 24 24">
    <path fill="#0050D7" fill-rule="evenodd" d="M12 1c6.075 0 11 4.925 11 11s-4.925 11-11 11S1 18.075 1 12 5.925 1 12 1zm0 2a9 9 0 1 0 0 18 9 9 0 0 0 0-18zM8.363 6.96l.094.083 3.548 3.548 3.55-3.548a1 1 0 0 1 1.414 1.414l-3.549 3.548 3.55 3.55a1 1 0 0 1 .083 1.32l-.083.095a1 1 0 0 1-1.32.083l-.095-.083-3.55-3.55-3.548 3.549a1 1 0 1 1-1.414-1.414l3.548-3.55-3.548-3.548a1 1 0 0 1-.083-1.32l.083-.094a1 1 0 0 1 1.32-.083z"/>
</svg>
